svgs/solid/lock-hashtag.svg

<svg xmlns="http://www.w3.org/2000/svg" viewBox="0 0 448 512"><!--! Font Awesome Pro 6.5.1 by @fontawesome - https://fontawesome.com License - https://fontawesome.com/license (Commercial License) Copyright 2023 Fonticons, Inc. --><path d="M144 144v48H304V144c0-44.2-35.8-80-80-80s-80 35.8-80 80zM80 192V144C80 64.5 144.5 0 224 0s144 64.5 144 144v48h16c35.3 0 64 28.7 64 64V448c0 35.3-28.7 64-64 64H64c-35.3 0-64-28.7-64-64V256c0-35.3 28.7-64 64-64H80zm96 48c-8.8 0-16 7.2-16 16v32H128c-8.8 0-16 7.2-16 16s7.2 16 16 16h32v64H128c-8.8 0-16 7.2-16 16s7.2 16 16 16h32v32c0 8.8 7.2 16 16 16s16-7.2 16-16V416h64v32c0 8.8 7.2 16 16 16s16-7.2 16-16V416h32c8.8 0 16-7.2 16-16s-7.2-16-16-16H288V320h32c8.8 0 16-7.2 16-16s-7.2-16-16-16H288V256c0-8.8-7.2-16-16-16s-16 7.2-16 16v32H192V256c0-8.8-7.2-16-16-16zm16 144V320h64v64H192z"/></svg>

<svg xmlns="http://www.w3.org/2000/svg" viewBox="0 0 448 512"><!--! Font Awesome Pro 6.1.1 by @fontawesome - https://fontawesome.com License - https://fontawesome.com/license (Commercial License) Copyright 2022 Fonticons, Inc. --><path d="M192 320H256V384H192V320zM80 192V144C80 64.47 144.5 0 224 0C303.5 0 368 64.47 368 144V192H384C419.3 192 448 220.7 448 256V448C448 483.3 419.3 512 384 512H64C28.65 512 0 483.3 0 448V256C0 220.7 28.65 192 64 192H80zM144 192H304V144C304 99.82 268.2 64 224 64C179.8 64 144 99.82 144 144V192zM160 256V288H128C119.2 288 112 295.2 112 304C112 312.8 119.2 320 128 320H160V384H128C119.2 384 112 391.2 112 400C112 408.8 119.2 416 128 416H160V448C160 456.8 167.2 464 176 464C184.8 464 192 456.8 192 448V416H256V448C256 456.8 263.2 464 272 464C280.8 464 288 456.8 288 448V416H320C328.8 416 336 408.8 336 400C336 391.2 328.8 384 320 384H288V320H320C328.8 320 336 312.8 336 304C336 295.2 328.8 288 320 288H288V256C288 247.2 280.8 240 272 240C263.2 240 256 247.2 256 256V288H192V256C192 247.2 184.8 240 176 240C167.2 240 160 247.2 160 256z"/></svg>
